X:1
T:The Unquiet Grave
M:6/8
L:1/8
K:Bb
 z4 z D| E2 D G2 F|
M:9/8
 DCD B,3 B3|
M:6/8
 A2 CC-D E| F3- F2 F| B2 FG-A B|
M:9/8
F-D B, C3 B,2 B,|
M:6/8
E-F GF-E C| B,3 B,2 B,|E-F GF-E C| B,3- B,2 z|
